X:1
T:Title
%%score { ( 1 3 ) | ( 2 4 ) }
L:1/8
M:4/4
K:Bb
V:1 treble nm="Grand Piano"
V:3 treble 
V:2 bass 
V:4 bass 
V:1
 z4 z2 z[Q:1/4=100] [DF] | [DF][DF][EG][EA] [DB][DB][CA][DB] | ccBc [Fd]3 [DF] | %3
 [DF][DF][EG][EA] [DB][DB][DB][Fd] | [=Ec][EB][EA][EG] F3 F | [DF][DF][EG][EA] [DB][DB][CA][DB] | %6
 ccBc [Fd]3 [Fd] | cBAG [DF][DF][DB][Ec] | ddcc [DB]4 | z4 [DB]4 | c4 z4 | z4 [DB]4 | %12
 z4 c4[K:bass] | z4 [DB]4 | c4 z4 | cBAG [DF][DF][DB][Ec] | [Fd]2 [Ec]2 [DB]4 |] %17
V:2
 z4 z2 z [B,,B,] | [B,,B,][B,,B,][B,,B,][B,,B,] [B,,B,][B,,B,][B,,B,][B,,B,] | %2
 [F,A,E][F,A,E][F,B,D][F,A,E] [B,,B,]3 [B,,B,] | %3
 [B,,B,][B,,B,][B,,B,][B,,B,] [B,,B,][B,,B,][B,,B,][B,,B,] | %4
 [C,G,][C,G,][C,C][C,B,] [F,A,]3 [F,A,E] | %5
 [B,,B,][B,,B,][B,,B,][B,,B,] [B,,B,][B,,B,][B,,B,][B,,B,] | %6
 [F,A,E][F,A,E][F,B,D][F,A,E] [B,,B,]3 [B,,B,] | %7
 [E,G,E][E,G,E][E,A,E][E,B,E] [B,,B,][B,,B,][B,,B,][B,,B,] | %8
 [F,B,F][F,B,F][F,A,E][F,A,E] [B,,F,]4 | [B,,B,]2 [B,,B,][B,,B,] [B,,B,]2 B,,B,, | E4 z4 | %11
 [B,,B,]2 [B,,B,][B,,B,] [B,,B,]B,,B,,[B,,B,] | z4 [A,E]4 | %13
 [B,,B,]2 [B,,B,][B,,B,] [B,,B,]2 B,,B,, | F4 z4 | %15
 [E,G,E][E,G,E][E,A,E][E,B,E] [B,,B,][B,,B,][B,,B,][B,,B,] | [F,B,]2 [F,A,]2 [B,,F,]4 |] %17
V:3
 x8 | x8 | x8 | x8 | x8 | x8 | x8 | x8 | x8 | [DF]2 [EG][EA] z2 B,B, | z2 A,A, [Fd]4 | %11
 [DF]2 [DG][EA] z B,B,[Fd] | [=Ec]2 [Ec]2 z[K:bass] E,D,C, | [DF]2 [EG][EA] z2 B,B, | %14
 z2 A,A, [Fd]3 [Fd] | x8 | x8 |] %17
V:4
 x8 | x8 | x8 | x8 | x8 | x8 | x8 | x8 | x8 | x8 | [F,A,]2 F,F, [B,,B,]4 | x8 | %12
 [C,G,]2 [C,B,]2 .F,2 z2 | x8 | [F,A,]2 F,F, [B,,B,]3 [B,,B,] | x8 | x8 |] %17

